!!!ONB: MCCC : ICS0003_02 : Extracted Monophonic Melody
!!!COM: Saint-Saëns, Camille
!!!OPR: Album
!!!OMV: 2
!!!SCT: Op.72
!!!ODT: 1884///
**kern
*staff1
*clefG2
*k[f#c#g#d#a#]
*B:
*M7/4
4.ff##
8ff#
8aa
8ff##
8bb#
8bb
=2
4r
2r
4.bb
8aa
8bb#
8bb
8fff#
8eee
=3
4r
2r
4.ff##
8ff#
8aa
8ff##
8ddd
8bb#
=4
4r
2r
4.aa#
8gg##
8bb#
8aa#
8fff#
8eee
=5
4r
2r
4.fff##
8fff#
8eee
8bb
8aa
8ff##
=6
4r
2r
4.ddd
8ccc#
8bb
8ff##
8ff#
8ee
=7
4r
4r
4r
4r
8r
8ff#
8ee#
8ff##
8ff#
8ee
=8
4r
2r
4.ff##
8ff#
8ee#
8aa
8bb
8ccc#
=9
4r
4.ddd
8ff#
4ee
8bb
8dd
4b#
8ff##
8b
=10
4b
8a#
8b
8cc#
8dd
8ee
8ff##
8ff#
8bb
8aa#
8bb
12ccc#
12ddd
12eee
=11
4eee#
4.fff#
8aa
4ff##
8ddd
8ff#
4ee
8bb
8dd
=12
12dd
12cc#
12dd
12dd#
12ee
12ff#
12ff##
12aa
12bb[
16bb]
16ccc#
8ddd
12ddd#
12eee
12fff#[
16fff#]
16fff##
8ggg#
16aaa
16aaa#
16bbb
16cccc#
=13
4dddd
4.ddd
8ddd#
8ddd#
8eee
8eee
24eee#
24r
48ee#
48aa
8eee#
8fff#
8fff#
8fff##
=14
4r
4.dd
8dd#
8dd#
8ee
8ee
24ee#
24r
48e#
48a
8ee#
8ff#
8ff#
8ff##
=15
4d
4d
4dd
4dd
4ddd[
8ddd]
8ddd
8ddd
8aaa#
=16
4d
4d
4dd
4dd
4ddd[
8ddd]
8ddd
8ddd
8aaa#
=17
4d#
4d#
4dd#
4dd#
4ddd#[
8ddd#]
8ddd#
16ddd#
16bbb
8dddd#
=18
4r
2r
4.ff##
8ff#
8aa
8ff##
8bb#
8bb
=19
4r
2r
4.bb
8aa
8bb#
8bb
8fff#
8eee
=20
4r
2r
4.ff##
8ff#
8aa
8ff##
8ddd#
8eee
=21
4r
2r
4.aa#
8gg##
8bb#
8aa#
8fff#
8fff##
=22
4r
4r
4r
4r
8r
8ff#
8ee#
8ff##[
8ff##]
8ff##
=23
4r
2r
4.ff##
8ff#
8ee#
8aa#[
8aa#]
8aa#
=24
4r
4.eee
8ff##
4ff#
8bb#
8ee
4dd
8aa
8b#
=25
4b#
8a#
8b
8dd#
8ff#
8aa#
8bb
8bb#
8ddd#
8ddd#
8eee
12fff#
12fff##
12ggg##
=26
4aaa#
4.bbb
8ddd
4bb#
8fff##
8bb
4aa
8eee
8ff##
=27
8ff#
8bb#
8ee
8dd#
8ff##
8b
8a
8ee
8f##
8e#
8b#
8e
8d#
8a#
=28
2.a#
4b
4b#
4cc#
4ee
=29
2.ee
4ff##
4ee
4cc#
4b#
=30
2.a#
4b
4b#
4cc#
4ee
=31
2.ee
4ff##
4ee
4cc#
4b#
=32
4a#
4f##
4e
4c#
4B#
4B
4A#
=33
4e
4f##
4e
4r
4a#
4b
4a#
=34
4e
4f##
4e
4r
4a#
4b
4a#
=35
4e
4f##
4e
4r
4e
4f##
4e
=36
4r
4e
4f##
4e
4r
4e
4f##
=37
4f##
4f##
4f##
4f##
4f##
4f##
4f##
=38
4r
4f##
4r
4f##
4r
4f##
4r
=39
4r
2r
2.f##
4r
=40
4r
2r
2.f##
4r
=41
1..r
=42
1..r
==
*-
